Numix/16/status/indicator-keyboard-Ig.svg

<?xml version="1.0" encoding="UTF-8" standalone="no"?>
<svg
   xmlns:dc="http://purl.org/dc/elements/1.1/"
   xmlns:cc="http://creativecommons.org/ns#"
   xmlns:rdf="http://www.w3.org/1999/02/22-rdf-syntax-ns#"
   xmlns:svg="http://www.w3.org/2000/svg"
   xmlns="http://www.w3.org/2000/svg"
   xmlns:sodipodi="http://sodipodi.sourceforge.net/DTD/sodipodi-0.dtd"
   xmlns:inkscape="http://www.inkscape.org/namespaces/inkscape"
   viewBox="0 0 16 16"
   id="svg2"
   version="1.1"
   inkscape:version="0.91 r13725"
   sodipodi:docname="indicator-keyboard-Ig.svg">
  <metadata
     id="metadata13">
    <rdf:RDF>
      <cc:Work
         rdf:about="">
        <dc:format>image/svg+xml</dc:format>
        <dc:type
           rdf:resource="http://purl.org/dc/dcmitype/StillImage" />
      </cc:Work>
    </rdf:RDF>
  </metadata>
  <defs
     id="defs11" />
  <sodipodi:namedview
     pagecolor="#ffffff"
     bordercolor="#666666"
     borderopacity="1"
     objecttolerance="10"
     gridtolerance="10"
     guidetolerance="10"
     inkscape:pageopacity="0"
     inkscape:pageshadow="2"
     inkscape:window-width="640"
     inkscape:window-height="480"
     id="namedview9"
     showgrid="false"
     inkscape:zoom="14.75"
     inkscape:cx="8"
     inkscape:cy="8"
     inkscape:window-x="65"
     inkscape:window-y="24"
     inkscape:window-maximized="0"
     inkscape:current-layer="svg2" />
  <path
     style="fill:#ececec;fill-opacity:1"
     d="M 1.5996094 0 C 0.71320937 2.9605947e-16 0 0.71320937 0 1.5996094 L 0 14.400391 C 2.9605947e-16 15.286791 0.71320937 16 1.5996094 16 L 14.400391 16 C 15.286791 16 16 15.286791 16 14.400391 L 16 1.5996094 C 16 0.71320937 15.286791 0 14.400391 0 L 1.5996094 0 z M 5.0976562 4.0351562 L 5.7089844 4.0351562 L 5.7089844 10.273438 L 5.0976562 10.273438 L 5.0976562 4.0351562 z M 9.21875 5.5292969 C 9.65075 5.5292969 9.9959062 5.5591406 10.253906 5.6191406 C 10.517906 5.6731406 10.734344 5.72725 10.902344 5.78125 L 10.902344 10.029297 C 10.902344 10.725297 10.723281 11.219672 10.363281 11.513672 C 10.003281 11.813672 9.460375 11.964844 8.734375 11.964844 C 8.434375 11.964844 8.1600625 11.940578 7.9140625 11.892578 C 7.6740625 11.850578 7.4669688 11.800234 7.2929688 11.740234 L 7.4101562 11.208984 C 7.5541563 11.274984 7.7500937 11.330906 7.9960938 11.378906 C 8.2480937 11.426906 8.4999531 11.451172 8.7519531 11.451172 C 9.3039531 11.451172 9.7032187 11.342953 9.9492188 11.126953 C 10.201219 10.916953 10.326172 10.555062 10.326172 10.039062 L 10.326172 9.7324219 C 10.290172 9.7624219 10.236063 9.7978437 10.164062 9.8398438 C 10.092062 9.8758438 10.002531 9.9150312 9.8945312 9.9570312 C 9.7925313 9.9990312 9.6731562 10.036406 9.5351562 10.066406 C 9.4031563 10.090406 9.2519844 10.101563 9.0839844 10.101562 C 8.8139844 10.101562 8.5527813 10.058609 8.3007812 9.9746094 C 8.0487813 9.8906094 7.8267656 9.7600781 7.6347656 9.5800781 C 7.4487656 9.4000781 7.2995469 9.1687188 7.1855469 8.8867188 C 7.0715469 8.5987187 7.015625 8.2497969 7.015625 7.8417969 C 7.015625 7.5117969 7.0659688 7.2058281 7.1679688 6.9238281 C 7.2699687 6.6418281 7.4136094 6.3993125 7.5996094 6.1953125 C 7.7916094 5.9853125 8.0229688 5.8229844 8.2929688 5.7089844 C 8.5689687 5.5889844 8.87675 5.5292969 9.21875 5.5292969 z M 9.2285156 6.0605469 C 8.9765156 6.0605469 8.7526875 6.1053125 8.5546875 6.1953125 C 8.3626875 6.2793125 8.1965937 6.4024531 8.0585938 6.5644531 C 7.9205938 6.7204531 7.8161406 6.9088594 7.7441406 7.1308594 C 7.6721406 7.3468594 7.6347656 7.5875625 7.6347656 7.8515625 C 7.6347656 8.1575625 7.6777187 8.4205781 7.7617188 8.6425781 C 7.8457188 8.8585781 7.9539375 9.0358281 8.0859375 9.1738281 C 8.2239375 9.3118281 8.3806875 9.4144687 8.5546875 9.4804688 C 8.7286875 9.5404687 8.9039844 9.5703125 9.0839844 9.5703125 C 9.3479844 9.5703125 9.5886875 9.531125 9.8046875 9.453125 C 10.026687 9.375125 10.198359 9.2855937 10.318359 9.1835938 L 10.318359 6.1855469 C 10.216359 6.1555469 10.083875 6.1294687 9.921875 6.1054688 C 9.759875 6.0754687 9.5285156 6.0605469 9.2285156 6.0605469 z "
     id="path4" />
</svg>

<svg xmlns="http://www.w3.org/2000/svg" viewBox="0 0 16 16">
 <path d="m 1.6 0 c -0.886 0 -1.6 0.713 -1.6 1.6 l 0 12.801 c 0 0.886 0.713 1.6 1.6 1.6 l 12.801 0 c 0.886 0 1.6 -0.713 1.6 -1.6 l 0 -12.801 c 0 -0.886 -0.713 -1.6 -1.6 -1.6 l -12.801 0 z m 3.498 4.04 l 0.611 0 l 0 6.238 l -0.611 0 l 0 -6.238 z m 4.121 1.494 c 0.432 0 0.777 0.03 1.035 0.09 c 0.264 0.054 0.48 0.108 0.648 0.162 l 0 4.248 c 0 0.696 -0.179 1.19 -0.539 1.484 c -0.36 0.3 -0.903 0.451 -1.629 0.451 c -0.3 0 -0.574 -0.024 -0.82 -0.072 c -0.24 -0.042 -0.447 -0.092 -0.621 -0.152 l 0.117 -0.531 c 0.144 0.066 0.34 0.122 0.586 0.17 c 0.252 0.048 0.504 0.072 0.756 0.072 c 0.552 0 0.951 -0.108 1.197 -0.324 c 0.252 -0.21 0.377 -0.572 0.377 -1.088 l 0 -0.307 c -0.036 0.03 -0.09 0.065 -0.162 0.107 c -0.072 0.036 -0.162 0.075 -0.27 0.117 c -0.102 0.042 -0.221 0.079 -0.359 0.109 c -0.132 0.024 -0.283 0.035 -0.451 0.035 c -0.27 0 -0.531 -0.043 -0.783 -0.127 c -0.252 -0.084 -0.474 -0.215 -0.666 -0.395 c -0.186 -0.18 -0.335 -0.411 -0.449 -0.693 c -0.114 -0.288 -0.17 -0.637 -0.17 -1.045 c 0 -0.33 0.05 -0.636 0.152 -0.918 c 0.102 -0.282 0.246 -0.525 0.432 -0.729 c 0.192 -0.21 0.423 -0.372 0.693 -0.486 c 0.276 -0.12 0.584 -0.18 0.926 -0.18 z m 0.01 0.531 c -0.252 0 -0.476 0.045 -0.674 0.135 c -0.192 0.084 -0.358 0.207 -0.496 0.369 c -0.138 0.156 -0.242 0.344 -0.314 0.566 c -0.072 0.216 -0.109 0.457 -0.109 0.721 c 0 0.306 0.043 0.569 0.127 0.791 c 0.084 0.216 0.192 0.393 0.324 0.531 c 0.138 0.138 0.295 0.241 0.469 0.307 c 0.174 0.06 0.349 0.09 0.529 0.09 c 0.264 0 0.505 -0.039 0.721 -0.117 c 0.222 -0.078 0.394 -0.168 0.514 -0.27 l 0 -2.998 c -0.102 -0.03 -0.234 -0.056 -0.396 -0.08 c -0.162 -0.03 -0.393 -0.045 -0.693 -0.045 z" style="fill:#ececec;fill-opacity:1"/>
</svg>
